svgs/thin/circle-e.svg

<svg xmlns="http://www.w3.org/2000/svg" viewBox="0 0 512 512"><!--! Font Awesome Pro 6.6.0 by @fontawesome - https://fontawesome.com License - https://fontawesome.com/license (Commercial License) Copyright 2024 Fonticons, Inc. --><path d="M256 16a240 240 0 1 1 0 480 240 240 0 1 1 0-480zm0 496A256 256 0 1 0 256 0a256 256 0 1 0 0 512zM184 128c-13.3 0-24 10.7-24 24l0 104 0 104c0 13.3 10.7 24 24 24l160 0c4.4 0 8-3.6 8-8s-3.6-8-8-8l-160 0c-4.4 0-8-3.6-8-8l0-96 128 0c4.4 0 8-3.6 8-8s-3.6-8-8-8l-128 0 0-96c0-4.4 3.6-8 8-8l160 0c4.4 0 8-3.6 8-8s-3.6-8-8-8l-160 0z"/></svg>

<svg xmlns="http://www.w3.org/2000/svg" viewBox="0 0 512 512"><!--! Font Awesome Pro 6.4.2 by @fontawesome - https://fontawesome.com License - https://fontawesome.com/license (Commercial License) Copyright 2023 Fonticons, Inc. --><path d="M256 16a240 240 0 1 1 0 480 240 240 0 1 1 0-480zm0 496A256 256 0 1 0 256 0a256 256 0 1 0 0 512zM184 128c-13.3 0-24 10.7-24 24V256 360c0 13.3 10.7 24 24 24H344c4.4 0 8-3.6 8-8s-3.6-8-8-8H184c-4.4 0-8-3.6-8-8V264H304c4.4 0 8-3.6 8-8s-3.6-8-8-8H176V152c0-4.4 3.6-8 8-8H344c4.4 0 8-3.6 8-8s-3.6-8-8-8H184z"/></svg>
